motocrosskursk/img/icons/vk.svg

<svg width="23" height="14" viewBox="0 0 23 14" fill="none" xmlns="http://www.w3.org/2000/svg">
<g clip-path="url(#clip0_104_389)">
<path d="M11.9093 13.6552C15.0919 13.6552 13.9572 11.6541 14.2026 11.0788C14.199 10.6491 14.1955 10.2355 14.2098 9.98468C14.8474 10.2767 15.4137 10.7012 15.8701 11.2292C17.387 12.7494 17.7746 13.6552 19.0007 13.6552H21.2565C21.4972 13.6741 21.7389 13.6347 21.9608 13.5406C22.1826 13.4464 22.3779 13.3002 22.5297 13.1146C22.662 12.9258 22.746 12.708 22.7744 12.48C22.8028 12.2521 22.7748 12.0207 22.6928 11.8058C22.1893 10.2361 19.2546 7.52628 19.0718 7.24067C19.0993 7.18815 19.1435 7.11792 19.1662 7.08134C19.7455 6.32127 21.9564 3.0314 22.2819 1.71487C22.2824 1.71253 22.2824 1.71012 22.2819 1.70779C22.3572 1.50877 22.3827 1.29471 22.3562 1.08386C22.3296 0.873016 22.2519 0.671631 22.1296 0.496877C21.9863 0.325552 21.8033 0.190923 21.596 0.104422C21.3888 0.0179208 21.1636 -0.017899 20.9393 3.553e-06H18.683C18.3341 -0.0127823 17.9899 0.083429 17.6995 0.274964C17.409 0.466499 17.1871 0.743613 17.0651 1.06692C16.5802 2.29141 15.2179 4.80941 14.1985 5.70048C14.1674 4.43764 14.1883 3.47399 14.205 2.75759C14.2367 1.35726 14.343 3.553e-06 12.8828 3.553e-06H9.33704C8.42209 3.553e-06 7.54536 0.992571 8.49435 2.17043C9.3233 3.20254 8.79296 3.77789 8.97213 6.64229C7.71988 5.0544 6.76705 3.2568 6.1592 1.33543C5.91255 0.642635 5.54107 3.553e-06 4.49354 3.553e-06H2.23782C2.05022 -0.0249687 1.85935 -0.00885921 1.67876 0.0471902C1.49816 0.10324 1.33225 0.197856 1.1928 0.324333C1.05334 0.450811 0.943749 0.606051 0.87179 0.77905C0.799831 0.952049 0.767267 1.13857 0.776408 1.32539C0.776408 3.1866 4.92772 13.6552 11.9093 13.6552ZM4.49354 1.3667C4.69241 1.3667 4.71272 1.3667 4.86024 1.78273C5.75607 4.40754 7.77051 8.29106 9.24088 8.29106C10.3452 8.29106 10.3452 7.1669 10.3452 6.7432V3.37308C10.3364 2.64094 10.0761 1.93346 9.60698 1.3667L12.8224 1.37024C12.8224 1.38558 12.8039 5.09797 12.8314 5.9973C12.8314 7.2743 13.8527 8.00368 15.4467 6.40448C16.6404 4.94439 17.6144 3.32154 18.3384 1.58622C18.4071 1.42217 18.4668 1.3667 18.683 1.3667H20.9483C20.9483 1.3667 20.9483 1.37201 20.9483 1.37496C20.7423 2.33094 18.7063 5.3771 18.0249 6.32245C18.0141 6.33721 18.004 6.35255 17.9938 6.36789C17.7853 6.62018 17.675 6.93783 17.6827 7.26346C17.6905 7.5891 17.8159 7.90125 18.0362 8.14354C18.0894 8.20727 18.2279 8.35657 18.4292 8.56429C19.0563 9.20692 21.2069 11.4045 21.3974 12.2784C21.2708 12.2985 21.1334 12.2838 19.0019 12.2885C18.548 12.2885 18.1933 11.6146 16.8394 10.2585C15.6222 9.08241 14.8321 8.60146 14.1125 8.60146C12.7155 8.60146 12.8171 9.7274 12.8302 11.0894C12.835 12.5647 12.8254 12.0991 12.8356 12.1917C12.535 12.2753 12.2221 12.3076 11.9105 12.2873C6.09171 12.2897 2.30531 3.12169 2.15958 1.36906C2.20975 1.36434 2.90372 1.36906 4.49354 1.36906V1.3667Z" fill="#F4510C"/>
</g>
<defs>
<clipPath id="clip0_104_389">
<rect width="22" height="13.6552" fill="white" transform="translate(0.776367)"/>
</clipPath>
</defs>
</svg>

<svg width="23" height="14" fill="none" xmlns="http://www.w3.org/2000/svg"><g clip-path="url(#clip0_104_389)"><path d="M11.91 13.655c3.182 0 2.047-2 2.293-2.576-.004-.43-.008-.844.007-1.094a4.88 4.88 0 011.66 1.244c1.517 1.52 1.905 2.426 3.13 2.426h2.256a1.503 1.503 0 001.274-.54 1.41 1.41 0 00.163-1.31c-.504-1.569-3.438-4.279-3.621-4.564.027-.053.072-.123.094-.16.58-.76 2.79-4.05 3.116-5.366v-.007A1.303 1.303 0 0022.13.497 1.396 1.396 0 0020.94 0h-2.257a1.676 1.676 0 00-.983.275 1.642 1.642 0 00-.635.792c-.485 1.224-1.847 3.742-2.867 4.633a57.775 57.775 0 01.007-2.942c.032-1.4.138-2.758-1.322-2.758H9.337c-.915 0-1.792.993-.843 2.17.83 1.033.299 1.608.478 4.472A16.71 16.71 0 016.16 1.335C5.913.643 5.541 0 4.494 0H2.238a1.305 1.305 0 00-1.045.324 1.275 1.275 0 00-.417 1.001c0 1.862 4.152 12.33 11.133 12.33zM4.493 1.367c.198 0 .219 0 .366.416.896 2.625 2.91 6.508 4.38 6.508 1.105 0 1.105-1.124 1.105-1.548v-3.37a3.207 3.207 0 00-.738-2.006l3.215.003c0 .016-.018 3.728.01 4.627 0 1.277 1.02 2.007 2.615.407a19.438 19.438 0 002.891-4.818c.07-.164.129-.22.345-.22h2.265v.009c-.206.956-2.242 4.002-2.923 4.947l-.031.046a1.355 1.355 0 00.042 1.776c.053.063.192.213.393.42.627.643 2.778 2.84 2.968 3.714-.126.02-.264.006-2.395.01-.454 0-.809-.673-2.163-2.03-1.217-1.176-2.007-1.657-2.726-1.657-1.397 0-1.296 1.126-1.283 2.488.005 1.476-.005 1.01.006 1.103a2.78 2.78 0 01-.925.095C6.09 12.29 2.305 3.122 2.16 1.37c.05-.005.744 0 2.334 0v-.002z" fill="#F4510C"/></g><defs><clipPath id="clip0_104_389"><path fill="#fff" transform="translate(.776)" d="M0 0h22v13.655H0z"/></clipPath></defs></svg>
